X:4
T:Walzer C Anm.
M:3/4
L:1/8
K:Cmaj%%MIDI gchordon
"C"c3 E G2 | "A7""_c#"^c3 "_e"E "_a"A2 | "Dm""_d"d3 "_f"F "_a"A2 | "_f"f3 "_f"F "_d"d2 | "G7"B3 F G2 | B3 F G2 |1 "C"c3 E G2 | ed cB dc :|2 "C"cE e3 d | c2 z2 z2 |
|:"" "F"FA c2 a2 | "G7"g2 f2 d2 | "C"cd e3 c | G3 E G2 | "G7"Bd f3 B | G3 F G2 | "C"cd e3 c |1 G3 E G2 :|2 c2 z2 z2 |] 

